shared/img/tn-fox.svg

<?xml version="1.0" encoding="UTF-8"?>
<svg width="18px" height="7px" viewBox="0 0 18 7" version="1.1" xmlns="http://www.w3.org/2000/svg" xmlns:xlink="http://www.w3.org/1999/xlink">
    <!-- Generator: sketchtool 47.1 (45422) - http://www.bohemiancoding.com/sketch -->
    <title>4A61BA61-9D2F-47BF-95DD-A605155EB53E</title>
    <desc>Created with sketchtool.</desc>
    <defs></defs>
    <g id="V4--RC-Updates" stroke="none" stroke-width="1" fill="none" fill-rule="evenodd">
        <g id="ASSETS--Pill-Icons" transform="translate(-179.000000, -175.000000)" fill-rule="nonzero" fill="#FFFFFF">
            <g id="fox" transform="translate(179.000000, 175.000000)">
                <path d="M11.7852632,4.05473684 C11.9199804,3.35900666 11.8165285,2.63818053 11.4915789,2.00842105 C10.9552993,0.847749179 9.79066384,0.107122508 8.51210526,0.113684211 C8.15933029,0.108542484 7.80833723,0.164637265 7.47473684,0.279473684 C5.91944232,0.814766234 4.97010057,2.38636561 5.22,4.01210526 C5.29900665,4.55169354 5.50520594,5.06475633 5.82157895,5.50894737 C6.62904326,6.63795145 8.05427341,7.14453193 9.39315789,6.77842105 C10.6663722,6.43526277 11.6093318,5.3615958 11.7852632,4.05473684 Z M9.11842105,4.89789474 C9.11580617,4.99937566 9.0881434,5.09863616 9.03789474,5.18684211 C8.90397736,5.41513209 8.6374551,5.53017767 8.37947368,5.47105263 C8.12114759,5.40378308 7.94157994,5.16956441 7.94368421,4.90263158 C7.94368421,4.42894737 7.94368421,3.95526316 7.94368421,3.48157895 C7.94368421,3.00789474 7.94368421,2.53421053 7.94368421,2.06052632 C7.94456979,1.89664117 8.01334175,1.74045321 8.13362912,1.6291425 C8.25391649,1.5178318 8.41495904,1.4613556 8.57842105,1.47315789 C8.88755833,1.51361696 9.11867745,1.77717385 9.11842105,2.08894737 C9.12315789,3.03631579 9.12315789,3.96473684 9.11842105,4.89789474 Z" id="Shape"></path>
                <path d="M17.9478947,6.84947368 L15.9726316,3.44842105 C15.9326537,3.38813033 15.9326537,3.30976441 15.9726316,3.24947368 C16.5173684,2.30210526 17.0526316,1.35473684 17.5926316,0.435789474 C17.6684211,0.307894737 17.7394737,0.175263158 17.82,0.0331578947 L17.7394737,0.0331578947 L15.7878947,0.0331578947 C15.7026316,0.0331578947 15.6694737,0.0805263158 15.6363158,0.142105263 L14.94,1.41631579 C14.918633,1.45666809 14.8932407,1.49475654 14.8642105,1.53 C14.8404511,1.49797517 14.8183179,1.46477531 14.7978947,1.43052632 C14.5705263,1.00421053 14.3242105,0.582631579 14.1205263,0.156315789 C14.0867575,0.0774684523 14.0072114,0.0282256371 13.9215789,0.0331578947 L11.9889474,0.0331578947 L11.8563158,0.0331578947 C11.8762627,0.0753366254 11.8983981,0.116445205 11.9226316,0.156315789 C12.5194737,1.19368421 13.1210526,2.22631579 13.7226316,3.26368421 C13.7708046,3.32657163 13.7708046,3.41395469 13.7226316,3.47684211 L12.0884211,6.31894737 L11.7236842,6.96315789 L11.8515789,6.96315789 L13.7463158,6.96315789 C13.8147043,6.96913074 13.8793616,6.93109702 13.9073684,6.86842105 C14.1868421,6.34736842 14.4757895,5.82631579 14.76,5.30052632 C14.7815287,5.26436776 14.8052575,5.22956542 14.8310526,5.19631579 C14.8516558,5.22359744 14.870636,5.25206768 14.8878947,5.28157895 C15.1768421,5.80263158 15.4705263,6.32842105 15.7547368,6.85421053 C15.7805475,6.92427872 15.851136,6.96741616 15.9252632,6.95842105 L17.8673684,6.95842105 L18,6.95842105 L17.9478947,6.84947368 Z" id="Shape"></path>
                <path d="M2.11736842,1.89473684 L4.16842105,1.89473684 C4.32473684,1.89473684 4.32947368,1.89473684 4.31526316,1.72421053 C4.27736842,1.19842105 4.23947368,0.672631579 4.20631579,0.142105263 C4.20631579,0.0426315789 4.17315789,0.00947368421 4.06894737,0.00947368421 L0.151578947,0.00947368421 C0.0331578947,0.00947368421 0,0.0378947368 0,0.161052632 C0,2.37157895 0,4.58210526 0,6.79263158 L0,6.96789474 L0.137368421,6.96789474 C0.696315789,6.96789474 1.25052632,6.96789474 1.80947368,6.96789474 C1.92315789,6.96789474 1.95631579,6.93947368 1.95631579,6.82105263 C1.95631579,6.17684211 1.95631579,5.53736842 1.95631579,4.89315789 C1.95631579,4.69421053 1.95631579,4.69421053 2.16,4.69421053 C2.68578947,4.69421053 3.21631579,4.69421053 3.74684211,4.69421053 C3.87,4.69421053 3.89842105,4.65157895 3.89842105,4.53789474 C3.89842105,4.01052632 3.89842105,3.48473684 3.89842105,2.96052632 C3.89842105,2.84684211 3.86526316,2.81368421 3.75157895,2.81368421 L2.14105263,2.81368421 L1.97526316,2.81368421 C1.97526316,2.53894737 1.97526316,2.27842105 1.97526316,2.01789474 C1.96578947,1.91842105 2.00842105,1.89473684 2.11736842,1.89473684 Z" id="Shape"></path>
            </g>
        </g>
    </g>
</svg>

<svg width="18" height="7" xmlns="http://www.w3.org/2000/svg"><g fill-rule="nonzero" fill="#FFF"><path d="M11.785 4.055a3.155 3.155 0 0 0-.293-2.047A3.264 3.264 0 0 0 8.512.114a3.05 3.05 0 0 0-1.037.165A3.401 3.401 0 0 0 5.22 4.012c.079.54.285 1.053.602 1.497a3.316 3.316 0 0 0 3.571 1.27 3.273 3.273 0 0 0 2.392-2.724zm-2.667.843a.616.616 0 0 1-.08.289.606.606 0 0 1-.659.284.583.583 0 0 1-.435-.568V3.482 2.06a.592.592 0 0 1 .634-.588c.31.04.54.304.54.616.005.947.005 1.876 0 2.809z"/><path d="M17.948 6.85l-1.975-3.402a.18.18 0 0 1 0-.199c.544-.947 1.08-1.894 1.62-2.813.075-.128.146-.26.227-.403h-2.032c-.085 0-.119.048-.152.11l-.696 1.273a.677.677 0 0 1-.076.114 1.189 1.189 0 0 1-.066-.1c-.227-.426-.474-.847-.677-1.274a.204.204 0 0 0-.2-.123h-2.065c.02.042.042.083.067.123.596 1.038 1.198 2.07 1.8 3.108a.175.175 0 0 1 0 .213l-1.635 2.842-.364.644h2.022a.161.161 0 0 0 .161-.095c.28-.52.569-1.042.853-1.567.022-.037.045-.071.071-.105.02.028.04.056.057.086.289.52.583 1.046.867 1.572.026.07.096.113.17.104H18l-.052-.109zM2.117 1.895h2.051c.157 0 .161 0 .147-.17C4.277 1.197 4.24.672 4.206.141c0-.1-.033-.133-.137-.133H.152C.033.01 0 .038 0 .161V6.968h1.809c.114 0 .147-.029.147-.147V4.893c0-.199 0-.199.204-.199h1.587c.123 0 .151-.042.151-.156V2.96c0-.114-.033-.147-.146-.147H1.975v-.796c-.01-.1.033-.123.142-.123z"/></g></svg>
